X:12711
T:Paddy Wedding
M:6/8
L:1/8
S:Armitt MS
N:No key signature is given.  It follows directly after Farewell to
N:Whisky, which is in A major, though it is in a different handwriting.
K:A major
(A/2B/2c/2)|ddd AFA|GB A ABc|ddd efg|g2ef2d|e2dc2A|Bcd 
AFA|B2AA:||:fg|aba fdf|aba fdf|aba fdf|g2 e efg|a2fg2e|f2dc2A|Bcd AFA|B2
AA2:||
